img/Mail.svg

<svg width="16" height="16" viewBox="0 0 16 16" fill="none" xmlns="http://www.w3.org/2000/svg">
<path fill-rule="evenodd" clip-rule="evenodd" d="M15.1668 11.9993V4.66602C15.1668 3.56145 14.2714 2.66602 13.1668 2.66602L2.83349 2.66603C1.72893 2.66603 0.833496 3.56146 0.833496 4.66603V11.9993C0.833496 13.1039 1.72893 13.9993 2.8335 13.9993L13.1668 13.9993C14.2714 13.9993 15.1668 13.1039 15.1668 11.9993ZM13.8335 6.17232V11.9993C13.8335 12.3675 13.535 12.666 13.1668 12.666L2.8335 12.666C2.46531 12.666 2.16683 12.3675 2.16683 11.9993L2.16683 6.17223L6.87561 9.3742C7.55433 9.83573 8.44613 9.83573 9.12485 9.3742L13.8335 6.17232ZM13.8259 4.56509C13.7773 4.24479 13.5007 3.99935 13.1668 3.99935L2.83349 3.99936C2.49965 3.99936 2.22311 4.24476 2.17443 4.56501L7.62535 8.27164C7.85159 8.42548 8.14886 8.42548 8.3751 8.27164L13.8259 4.56509Z" fill="white"/>
</svg>

<svg width="16" height="16" fill="none" xmlns="http://www.w3.org/2000/svg"><path fill-rule="evenodd" clip-rule="evenodd" d="M15.167 12V4.665a2 2 0 00-2-2H2.833a2 2 0 00-2 2v7.333a2 2 0 002 2h10.334a2 2 0 002-2zm-1.333-5.828V12a.667.667 0 01-.667.667H2.833A.667.667 0 012.167 12V6.172l4.709 3.202a2 2 0 002.249 0l4.709-3.202zm-.008-1.607a.667.667 0 00-.66-.566H2.834a.667.667 0 00-.659.566l5.451 3.707a.667.667 0 00.75 0l5.45-3.707z" fill="#fff"/></svg>
